X: 152
T:Schottis efter Andrea Hoag
M:4/4
L:1/8
S:Andrea Hoag, from a class at Northern Week at Ashokan
R:Schottis
O:Sweden
Z:<http://tunes.nhcountrydance.com>.
K:Dm
|:a2 a<g f2 f<e | d2 c2 B4 | A2 ^ce a2>e2 |fgfe d2 A2 |
a2 a<g f2 f<e | d2 c2 B4 | A2 ^ce a2 a^c | (^c2<d2) d4 :|
D2>F2 A2 A2 | B2 B2 A4 | A2 ^ce a2>e2 |fgfe d2 A2 |
D2>F2 A2 A2 | B2 B2 A4 | A2 ^ce a2 a^c | (^c2<d2) d4 :|

